svg/fluentui-system-icons/ic_fluent_person_search_32_regular.svg

<svg width="32" height="32" viewBox="0 0 32 32" fill="none" xmlns="http://www.w3.org/2000/svg">
<path d="M25 8.99998C25 12.866 21.866 16 18 16C14.134 16 11 12.866 11 8.99998C11 5.134 14.134 2 18 2C21.866 2 25 5.134 25 8.99998ZM23 8.99998C23 6.23857 20.7614 4 18 4C15.2386 4 13 6.23857 13 8.99998C13 11.7614 15.2386 14 18 14C20.7614 14 23 11.7614 23 8.99998ZM17.9999 30C17.6635 30 17.33 29.9909 16.9999 29.973C16.9931 29.3422 16.7491 28.7135 16.2678 28.2322L15.9002 27.8646C16.5754 27.9531 17.2776 28 17.9999 28C20.8767 28 23.4342 27.256 25.2413 26.1061C27.0602 24.9486 28 23.4725 28 22V21.5C28 20.6715 27.3284 20 26.5 20H14.0732C13.8173 19.2758 13.4532 18.6027 13.0005 18H26.5C28.433 18 30 19.567 30 21.5V22C30 24.3935 28.4773 26.4174 26.315 27.7934C24.1408 29.177 21.1983 30 17.9999 30ZM7 28.5C8.29583 28.5 9.49572 28.0892 10.4765 27.3907L13.7929 30.7071C14.1834 31.0976 14.8166 31.0976 15.2071 30.7071C15.5976 30.3166 15.5976 29.6834 15.2071 29.2929L11.8907 25.9765C12.5892 24.9957 13 23.7958 13 22.5C13 19.1863 10.3137 16.5 7 16.5C3.68629 16.5 1 19.1863 1 22.5C1 25.8137 3.68629 28.5 7 28.5ZM7 26.5C4.79086 26.5 3 24.7091 3 22.5C3 20.2909 4.79086 18.5 7 18.5C9.20914 18.5 11 20.2909 11 22.5C11 24.7091 9.20914 26.5 7 26.5Z" fill="#212121"/>
</svg>

<svg xmlns="http://www.w3.org/2000/svg" width="32" height="32"><path d="M25 9a7 7 0 1 1-14 0 7 7 0 0 1 14 0Zm-2 0a5 5 0 1 0-10 0 5 5 0 0 0 10 0Zm-5 21c-.337 0-.67-.01-1-.027a2.492 2.492 0 0 0-.732-1.74l-.368-.368c.675.088 1.378.135 2.1.135 2.877 0 5.434-.744 7.241-1.894C27.061 24.95 28 23.472 28 22v-.5a1.5 1.5 0 0 0-1.5-1.5H14.073a7.48 7.48 0 0 0-1.072-2H26.5a3.5 3.5 0 0 1 3.5 3.5v.5c0 2.393-1.523 4.417-3.685 5.793C24.141 29.177 21.198 30 18 30ZM7 28.5c1.296 0 2.496-.41 3.476-1.11l3.317 3.317a1 1 0 0 0 1.414-1.414l-3.316-3.316A6 6 0 1 0 7 28.5Zm0-2a4 4 0 1 1 0-8 4 4 0 0 1 0 8Z"/></svg>
